X:1
T:Title
%%score 1 2 3 4
L:1/8
M:4/4
K:C
V:1 treble nm="Part_1"
V:2 treble nm="Part_2"
V:3 treble nm="Part_3"
V:4 bass nm="Part_4"
V:1
 d3 ABA/B/cB | A4 G3 G | cB/c/dc c2 B2 | e3 BcB/c/dc | B4 Aaga | ^fdef ggfg | ecde fagf | e4 d4 | %8
 z gfg ec/d/ e/f/g/e/ | ^f2 g4 f2 | !fermata!g8 | z8 | z8 | z8 | z8 | z8 | z8 | z8 | z8 | z8 | z8 | %21
 z8 | z8 | z8 |[M:3/2][K:treble] z12 | z12 | z12 | d6 d2 c4 | B2 GA Bcde f4 | e4 d8 | c8 z4 | %31
 a6 a2 g4 | ^f6 d2 e2 f2 | g6 g2 f4 | e2 d2 e2 f2 g4 | a6 a2 g4 | f12 | f4 c8 | c8 c4 | d6 d2 c4 | %40
 B2 G2 A2 B2 c2 d2 | e6 e2 d4 | ^c2 A2 B2 c2 d2 e2 | ^f2 d4 d2 c4 | B2 G4 G2 F4 | E4 F2 G2 A4 | %46
 G4 G4 ^F4 | G12 |[M:4/4] z8 | z8 | z8 | z8 | z8 | z8 |[M:6/2] z24 | z24 | z24 | z24 | z24 | %59
 a8 g8 a8 | d8 e8 ^f8 | g16 ^f8 | e16 d8 | e24 | d24 | z24 | z24 | z24 | z24 | g8 f8 g8 | %70
 c8 d8 e8 | f16 e8 | d16 c8 | d24 | c24 | A8 B8 c8 | d24 | z24 | e8 f8 g8 | a24 | z24 | z24 | z24 | %83
 z24 | z24 | z24 |[M:4/4] G/A/B/c/ A2 B/c/d/e/ ^c2 | d4 z4 | z e/d/ ^cB/c/ d4 | z d/c/ BA/B/ c4 | %90
 z agf e4 | dc/B/ AG/A/ Bf/e/ dc/d/ | ef g4 ^f2 | g8 | z8 | z8 | z8 | z8 | z8 | z8 | z8 | z8 | z8 | %103
 z8 | z8 | z8 | z8 | z8 | z8 | z8 |[M:6/2] z24 | z24 | z24 | z24 | z24 | a8 g8 a8 | d8 e8 ^f8 | %117
 g16 ^f8 | e16 d8 | e24 | d24 | z24 | z24 | z24 | z24 | g8 f8 g8 | c8 d8 e8 | f16 e8 | d16 c8 | %129
 d24 | c24 | A8 B8 c8 | d24 | z24 | e8 f8 g8 | a24 | z24 | z24 | z24 | z24 | z24 | z24 | %142
[M:4/4] z8 | z8 | z8 | z2 c>e dcdB | c2 c>e dcdB | cefg a2 fe | d4 c4 | z8 | z8 | z2 d3 e/f/ g2- | %152
 g2 ^f2 g4 | e/f/g/f/ e/d/c/B/ A4 | e/d/e/f/ g/f/g/e/ a4 | g8- | g8 |] %157
V:2
 z8 | z4 g3 d | ed/e/fe d4 | c3 ^GAG/A/BA | A2 ^G2 A4 | z dcd BGAB | c4 dfed | d2 ^c2 ddcd | %8
 BGAB c4- | c2 B2 A4 | !fermata!B8 | z8 | z8 | z8 | z8 | z8 | z8 | z8 | z8 | z8 | z8 | z8 | z8 | %23
 z8 |[M:3/2][K:treble] z12 | z12 | z12 | B6 B2 A4 | G2 EFGABc d4 | c4 c4 B4 | c8 z4 | z12 | %32
 A6 G2 A4 | d8 d4 | e8 e4 | f6 f2 e4 | d2 c2 d2 e2 f4 | f4 f4 e4 | a6 a2 g4 | ^f6 d2 e2 f2 | %40
 g4 d6 g2 | c12 | z2 ^c2 d2 e2 ^f2 g2 | a2 ^f4 f2 e4 | d8 d4 | d8 a4 | d4 d8 | d12 |[M:4/4] z8 | %49
 z8 | z8 | z8 | z8 | z8 |[M:6/2] z24 | z24 | z24 | z24 | z24 | z24 | d8 c8 d8 | B8 c8 d8 | %62
 ^c16 d8 | d16 ^c8 | d24 | z24 | z24 | z24 | z24 | z24 | c8 B8 c8 | A8 B8 c8 | B16 c8 | c16 B8 | %74
 c24 | z24 | D8 E8 ^F8 | G24 | z24 | A8 B8 ^c8 | d24 | z24 | z24 | z24 | z24 | z24 |[M:4/4] z8 | %87
 d/e/^f/g/ e2 f/g/a/b/ ^g2 | a4 z a/g/ ^fe/f/ | g4 z g/f/ ed/e/ | ffed d2 ^c2 | %91
 dA/G/ ^FE/F/ Gd/c/ BA/B/ | c3 B A4 | B8 | z8 | z8 | z8 | z8 | z8 | z8 | z8 | z8 | z8 | z8 | z8 | %105
 z8 | z8 | z8 | z8 | z8 |[M:6/2] z24 | z24 | z24 | z24 | z24 | z24 | d8 c8 d8 | B8 c8 d8 | %118
 ^c16 d8 | d16 ^c8 | d24 | z24 | z24 | z24 | z24 | z24 | c8 B8 c8 | A8 B8 c8 | B16 c8 | c16 B8 | %130
 c24 | z24 | D8 E8 ^F8 | G24 | z24 | A8 B8 ^c8 | d24 | z24 | z24 | z24 | z24 | z24 |[M:4/4] z8 | %143
 z8 | z8 | z2 e>g fefd | e2 A>c BAA^G | Acde f2 dc | c2 B2 c4 | z8 | z8 | z2 B2 c3 B | A4 B4 | %153
 z4 d/e/f/e/ d/c/B/A/ | G4 d4 | d8- | d8 |] %157
V:3
 z8 | z8 | z8 | z8 | z8 | z8 | z8 | z8 | z8 | z8 | z8 | G6 A/F/G/A/ | B4 B4 | z2 Bc d4 | d4 z dcB | %15
 c6 BA | B2 B4 ^cG | A4 A4 | A4 z2 AA | A2 AB c2 c2 | z eA^G B4 | z BBc d4 | dccB B4 | A8 | %24
[M:3/2] A6 GF E4 | F2 DE FGAB c4 | B4 A8 | G12 | z12 | z12 | e6 e2 d4 | ^c6 A2 B2 c2 | d6 d2 c4 | %33
 B6 G2 A2 B2 | c6 c2 _B4 | A6 F2 G2 A2 | _B12 | A4 G8 | F8 z4 | z12 | G6 G2 F4 | %41
 E2 C2 D2 E2 F2 G2 | A6 A2 G4 | ^F2 D2 E2 F2 G2 A2 | B6 B2 A4 | G4 A2 B2 c4 | B4 A6 G2 | G12 | %48
[M:4/4] z D>EF G>A B>c | d4 dc/B/ A2 | z Bcd GA/B/ A>G | A3 A AA/A/ AB | c>c c2 z A A>^G | %53
 B3 B B4 |[M:6/2] e8 d8 e8 | A8 B8 c8 | d16 c8 | B16 A8 | B16 A8 | A24 | z24 | z24 | z24 | z24 | %64
 d8 c8 d8 | G8 A8 B8 | c16 B8 | A16 G8 | A16 G8 | G24 | z24 | z24 | z24 | z24 | E8 F8 G8 | %75
 A8 A8 z8 | z24 | G8 A8 B8 | c16 c8 | z24 | D8 E8 ^F8 | G8 A8 B8 | c16 B8 | A16 G8 | A16 G8 | G24 | %86
[M:4/4] z8 | z8 | z8 | z8 | z8 | z8 | z8 | z8 | G/D/E/F/ G/D/E/F/ G/D/E/F/ G/A/B/c/ | d4 z2 e>B | %96
 ^ccdA BBcG | A/G/A/B/ cc c3 B | cGGF AAGF | E3 D Dddc | e2 e2 fedc | Bc dc B3 A | A4 A4- | %103
 AAAE ^F3 F | F2 d3 ddA | B3 B B2 G2 | A/G/A/B/ c/B/c/A/ B/A/B/c/ d/c/d/B/ | %107
 c/B/c/d/ e/d/e/c/ d/c/d/e/ f/e/d/c/ | B2 c2 c3 B | c8 |[M:6/2] e8 d8 e8 | A8 B8 c8 | d16 c8 | %113
 B16 A8 | B16 A8 | A24 | z24 | z24 | z24 | z24 | d8 c8 d8 | G8 A8 B8 | c16 B8 | A16 G8 | A16 G8 | %125
 G24 | z24 | z24 | z24 | z24 | E8 F8 G8 | A8 A8 z8 | z24 | G8 A8 B8 | c8 c8 z8 | z24 | D8 E8 ^F8 | %137
 G8 A8 B8 | c16 B8 | A16 G8 | A16 G8 | G24 |[M:4/4] z2 B>d cBcA | BG e>g fefd | %144
 ec d/e/f/e/ d/e/f/e/ d2 | c4 z4 | z8 | z8 | z4 z2 E>G | FEFD EC c2- | c d/c/ Bc/B/ A3 G | G8 | %152
 z4 G/A/B/A/ G/F/E/D/ | c/d/e/d/ c/B/A/G/ ^F3 G/A/ | G6 ^F2 | G8- | G8 |] %157
V:4
 G,2 ^F,2 G,2 C,2 | D,4 G,,2 B,,2 | C,2 F,,2 G,,4 | C,2 E,2 A,,2 D,2 | E,4 A,,4 | D,4 G,,4 | %6
 C,4 _B,,2 F,,2 | G,,2 A,,2 D,4 | G,,4 C,4 | D,8 | G,,8 | G,6 ^F,2 | G,4 G,4 | G,,4 G,,4- | %14
 G,,4 G,4 | E,4 ^F,4 | G,4 E,4 | D,4 D,4 | D,8- | D,4 A,,4 | A,,4 E,4 | E,4 F,4 | E,4 E,,4 | A,,8 | %24
[M:3/2] A,,12 | D,8 A,,4 | B,,4 D,8 | G,,12 | G,,8 D,,4 | E,,4 F,,4 G,,4 | C,8 B,,4 | A,,12 | %32
 D,12 | G,,12 | C,12 | F,,12 | _B,,12 | F,,4 C,8 | F,,8 E,,4 | D,,8 D,,4 | G,,12 | C,12 | A,,12 | %43
 D,12 | G,,12 | C,8 A,,4 | B,,4 D,8 | G,,12 |[M:4/4] G,,8 | G,,4 ^F,,4 | G,,4 E,4 | D,4 D,4 | %52
 A,,8 | E,8 |[M:6/2] C,24 | F,16 E,8 | D,16 A,,8 | E,16 F,8 | E,24 | A,,24 | B,,24 | G,,16 D,8 | %62
 A,,16 F,,8 | G,,16 A,,8 | D,24 | E,16 D,8 | C,16 G,,8 | D,16 E,8 | D,24 | G,,24 | C,24 | F,,24 | %72
 G,,16 A,,8 | G,,24 | C,24 | A,,24 | D,24 | G,,24 | C,24 | A,,24 | D,24 | E,16 D,8 | C,16 G,,8 | %83
 D,16 E,8 | D,16 D,8 | G,,24 |[M:4/4] G,2 ^F,2 G,2 E,2 | D,2 ^C,2 D,2 B,,2 | A,,4 D,4 | G,,4 C,4 | %90
 F,,2 G,,2 A,,4 | D,4 G,,4 | C,4 D,4 | G,,8 | G,,8 | G,4 ^G,4 | A,2 ^F,2 G,2 E,2 | F,2 C,2 G,4 | %98
 C,4 F,,2 G,,2 | A,,4 D,4 | ^C,4 D,4 | E,2 D,2 E,4 | A,,4 A,,4 | ^C,4 D,4- | D,4 ^F,4 | G,8 | %106
 F,2 A,2 G,2 B,2 | A,2 C2 F,4 | G,2 E,2 G,2 G,,2 | C,8 |[M:6/2] C,24 | F,16 E,8 | D,16 A,,8 | %113
 E,16 F,8 | E,24 | A,,24 | B,,24 | G,,16 D,8 | A,,16 F,,8 | G,,16 A,,8 | D,24 | E,16 D,8 | %122
 C,16 G,,8 | D,16 E,8 | D,24 | G,,24 | C,24 | F,,24 | G,,16 A,,8 | G,,24 | C,24 | A,,24 | D,24 | %133
 G,,24 | C,24 | A,,24 | D,24 | E,16 D,8 | C,16 G,,8 | D,16 E,8 | D,16 D,8 | G,,24 | %142
[M:4/4] G,2 G,2 A,2 ^F,2 | G,2 E,2 D,2 B,,2 | C,2 A,,2 F,,2 G,,2 | C,4 F,A, G,2 | %146
 C,2 A,,2 D,2 E,2 | A,,4 F,,4 | G,,4 C,4 | D,2 B,,2 C,2 A,,2 | B,,2 C,2 D,4 | G,,4 C,4 | C,4 G,,4 | %153
 C,4 D,4 | E,4 D,4 | G,,8- | G,,8 |] %157

